dist/images/ico/ico_home_02.svg

<svg width="12" height="14" viewBox="0 0 12 14" fill="none" xmlns="http://www.w3.org/2000/svg">
<path d="M1.27968 12.6407H3.79968V7.58482H8.20032V12.6407H10.7203V5.12011L6 1.33892L1.27968 5.12011V12.6407ZM1.27968 14C0.93344 14 0.6336 13.8657 0.38016 13.5972C0.12672 13.328 0 13.0092 0 12.6407V5.12011C0 4.90733 0.0467199 4.70542 0.14016 4.51439C0.2336 4.32335 0.36032 4.16394 0.52032 4.03613L5.23968 0.254935C5.34656 0.169957 5.46656 0.106393 5.59968 0.0642435C5.73344 0.0214145 5.86688 0 6 0C6.14656 0 6.2832 0.0214145 6.40992 0.0642435C6.53664 0.106393 6.65344 0.169957 6.76032 0.254935L11.4797 4.03613C11.6397 4.16394 11.7664 4.32335 11.8598 4.51439C11.9533 4.70542 12 4.90733 12 5.12011V12.6407C12 13.0092 11.8733 13.328 11.6198 13.5972C11.3664 13.8657 11.0666 14 10.7203 14H6.91968V8.94413H5.08032V14H1.27968Z" fill="#A4A4A4"/>
</svg>

<svg width="12" height="14" fill="none" xmlns="http://www.w3.org/2000/svg"><path d="M1.28 12.64H3.8V7.586h4.4v5.056h2.52V5.12L6 1.338 1.28 5.12v7.52zm0 1.36c-.347 0-.646-.134-.9-.403a1.348 1.348 0 01-.38-.956V5.12a1.394 1.394 0 01.52-1.085L5.24.255c.107-.085.227-.149.36-.19a1.307 1.307 0 01.81 0c.127.041.243.105.35.19l4.72 3.781c.16.128.286.287.38.478.093.191.14.393.14.606v7.52c0 .37-.127.688-.38.957a1.197 1.197 0 01-.9.403h-3.8V8.944H5.08V14h-3.8z" fill="#A4A4A4"/></svg>
